assets/svg/1F4D2.svg

<svg xmlns="http://www.w3.org/2000/svg" viewBox="0 0 64 64" enable-background="new 0 0 64 64"><g transform="translate(6)"><path d="m2.882 58.4c0 0 1.892 7.269 13.712 5.409l2.01-4.867-3.402-3.695-9.413-3.106-2.908 6.259" fill="#34484c"/><path d="m40.552 44.775c0 2.576-1.323 3.253-4.666 4.665l-28.547 12.05c-2.572 0-4.663-2.087-4.663-4.665v-40.11c0-2.576 1.515-3.431 4.663-4.663l28.547-12.05c2.578 0 4.666 2.087 4.666 4.666v40.11" fill="#ce8831"/><path d="m5.27 61c0 0 10.7 3.067 11.325 2.805.625-.265-.401-4.641-.401-4.641l-3.867-4.169-3.606-.168-.631.901-2.82 5.272" fill="#34484c"/><path d="m35.21 2.774l-31.665 13.306 1.484 8.529 4.715.471 15.732-2.534 9.78-5.126 7.201-9.86c-1.575-2.822-3.887-4.57-7.247-4.786" fill="#f4f5f5"/><path d="m11.939 19.03c0-.748.13-1.346.387-1.853-3.241-.303-6.301-1.241-8.536-3.253-.738.683-1.105 1.531-1.105 2.79v40.11c0 2.578 2.091 4.665 4.667 4.665l4.607-1.945c-.013-.134-.021-.271-.021-.406v-40.11z" fill="#34484c"/><path d="m50.628 48.729c0 2.576-1.321 3.251-4.663 4.663l-29.37 10.414c-2.576 0-4.666-2.089-4.666-4.665v-40.11c0-2.579 1.514-3.435 4.666-4.666l29.37-10.414c2.578 0 4.663 2.089 4.663 4.667v40.11" fill="#fbb041"/><path d="m28.874 58.39c-2.578 0-4.665-2.089-4.665-4.665v-40.11c0-1.438.68-1.8 1.642-2.532l-9.256 3.284c-3.152 1.23-4.666 2.087-4.666 4.666v40.11c0 2.576 2.09 4.665 4.666 4.665l29.37-10.414c1.382-.584 2.416-1.042 3.156-1.563l-20.247 6.559" fill="#e29632"/><g fill="#ad6e29"><path d="m38.469 16.195c.129.325-.037.691-.362.816l-15.62 6.02c-.325.125-.691-.034-.815-.36l0 0c-.126-.327.035-.691.361-.816l15.62-6.02c.326-.123.692.039.816.362l0 0"/><path d="m38.469 19.07c.129.325-.037.691-.362.816l-15.62 6.02c-.325.125-.691-.036-.815-.361l0 0c-.126-.326.035-.689.361-.816l15.62-6.02c.326-.126.692.036.816.361l0 0"/><path d="m33.16 24.09c.125.325.049.659-.174.744l-10.667 4.111c-.222.087-.503-.109-.629-.435l0 0c-.124-.325-.046-.657.177-.744l10.667-4.112c.222-.084.503.111.626.436l0 0"/></g><g fill="#c6c7c7"><path d="m1.342 18.05c-1.944.701-1.448 2.597-.558 4.02 1.316 2.097 3.335 3.566 5.686 4.263 1.961.58 4.32.628 6.275.046 2.102-.622 2.382-3.109.817-4.457-.937-.802-2.253.59-1.312 1.396 1.319 1.134-.677 1.4-1.021 1.451-.575.085-1.164.083-1.738.077-1.03-.001-2.057-.222-3.041-.513-1.252-.372-2.274-1.208-3.153-2.142-.215-.23-1.727-2.184-1.389-2.305 1.155-.416.602-2.249-.566-1.831l0 0"/><path d="m1.342 25.34c-1.944.699-1.448 2.598-.558 4.02 1.316 2.097 3.335 3.566 5.686 4.262 1.961.581 4.32.63 6.275.048 2.102-.622 2.382-3.111.817-4.457-.937-.802-2.253.59-1.312 1.396 1.319 1.134-.677 1.398-1.021 1.451-.575.085-1.164.081-1.738.077-1.03-.001-2.057-.225-3.041-.516-1.252-.372-2.274-1.206-3.153-2.14-.215-.232-1.727-2.184-1.389-2.305 1.155-.415.602-2.25-.566-1.831l0 0"/><path d="m1.356 32.989c-1.946.701-1.449 2.599-.558 4.02 1.315 2.098 3.334 3.566 5.686 4.264 1.96.58 4.318.628 6.276.047 2.101-.623 2.381-3.112.814-4.458-.934-.802-2.251.59-1.312 1.396 1.321 1.134-.674 1.4-1.02 1.451-.571.084-1.159.082-1.736.076-1.026-.008-2.059-.222-3.043-.513-1.25-.372-2.272-1.209-3.15-2.14-.215-.232-1.729-2.187-1.391-2.308 1.158-.413.599-2.248-.566-1.83l0 0"/><path d="m1.356 40.621c-1.946.699-1.449 2.597-.558 4.02 1.315 2.098 3.336 3.566 5.686 4.264 1.96.58 4.318.626 6.276.046 2.101-.622 2.384-3.111.814-4.457-.934-.802-2.248.59-1.312 1.396 1.321 1.133-.674 1.398-1.02 1.45-.571.085-1.159.081-1.736.077-1.026-.001-2.059-.225-3.04-.516-1.253-.369-2.274-1.206-3.15-2.14-.218-.23-1.729-2.184-1.394-2.306 1.158-.413.599-2.247-.566-1.829l0 0"/><path d="m1.356 48.16c-1.946.701-1.449 2.598-.558 4.02 1.315 2.097 3.336 3.566 5.686 4.263 1.96.58 4.318.629 6.276.047 2.101-.622 2.384-3.109.814-4.457-.934-.803-2.248.59-1.312 1.396 1.321 1.134-.674 1.398-1.02 1.451-.571.085-1.159.081-1.736.077-1.026-.009-2.059-.223-3.04-.514-1.253-.372-2.274-1.206-3.15-2.14-.218-.232-1.729-2.187-1.394-2.308 1.158-.414.599-2.249-.566-1.83l0 0"/></g></g></svg>

<?xml version="1.0" encoding="UTF-8" standalone="no"?>
<!-- Generator: Adobe Illustrator 16.0.0, SVG Export Plug-In . SVG Version: 6.00 Build 0)  -->

<svg
   xmlns:dc="http://purl.org/dc/elements/1.1/"
   xmlns:cc="http://creativecommons.org/ns#"
   xmlns:rdf="http://www.w3.org/1999/02/22-rdf-syntax-ns#"
   xmlns:svg="http://www.w3.org/2000/svg"
   xmlns="http://www.w3.org/2000/svg"
   xmlns:sodipodi="http://sodipodi.sourceforge.net/DTD/sodipodi-0.dtd"
   xmlns:inkscape="http://www.inkscape.org/namespaces/inkscape"
   version="1.1"
   id="Layer_1"
   x="0px"
   y="0px"
   width="64px"
   height="64px"
   viewBox="0 0 64 64"
   enable-background="new 0 0 64 64"
   xml:space="preserve"
   inkscape:version="0.48.5 r10040"
   sodipodi:docname="1F4D2.svg"
   inkscape:export-filename="D:\TESTINGEMOJI\SVGTEST\1F4D2.png"
   inkscape:export-xdpi="90"
   inkscape:export-ydpi="90"><metadata
   id="metadata41283"><rdf:RDF><cc:Work
       rdf:about=""><dc:format>image/svg+xml</dc:format><dc:type
         rdf:resource="http://purl.org/dc/dcmitype/StillImage" /><dc:title></dc:title></cc:Work></rdf:RDF></metadata><defs
   id="defs41281" /><sodipodi:namedview
   pagecolor="#ffffff"
   bordercolor="#666666"
   borderopacity="1"
   objecttolerance="10"
   gridtolerance="10"
   guidetolerance="10"
   inkscape:pageopacity="0"
   inkscape:pageshadow="2"
   inkscape:window-width="640"
   inkscape:window-height="480"
   id="namedview41279"
   showgrid="false"
   inkscape:zoom="3.6875"
   inkscape:cx="32"
   inkscape:cy="28.080514"
   inkscape:window-x="537"
   inkscape:window-y="273"
   inkscape:window-maximized="0"
   inkscape:current-layer="Layer_1" />
<g
   id="g41235"
   transform="translate(6,0)">
	<path
   d="m 2.882,58.397 c 0,0 1.892,7.269 13.712,5.409 L 18.605,58.939 15.203,55.244 5.79,52.138 2.882,58.397 z"
   id="path41237"
   inkscape:connector-curvature="0"
   style="fill:#34484c" />
	<path
   d="m 40.552,44.775 c 0,2.576 -1.323,3.253 -4.666,4.665 L 7.339,61.493 c -2.572,0 -4.663,-2.087 -4.663,-4.665 V 16.716 c 0,-2.576 1.515,-3.431 4.663,-4.663 L 35.886,0 c 2.578,0 4.666,2.087 4.666,4.666 v 40.109 z"
   id="path41239"
   inkscape:connector-curvature="0"
   style="fill:#ce8831" />
	<path
   d="m 5.27,61.002 c 0,0 10.7,3.067 11.325,2.805 0.625,-0.265 -0.401,-4.641 -0.401,-4.641 L 12.327,54.997 8.721,54.829 8.09,55.73 5.27,61.002 z"
   id="path41241"
   inkscape:connector-curvature="0"
   style="fill:#34484c" />
	<path
   d="M 35.213,2.774 3.548,16.08 5.032,24.609 9.747,25.08 25.479,22.546 35.259,17.42 42.46,7.56 C 40.885,4.738 38.573,2.99 35.213,2.774 z"
   id="path41243"
   inkscape:connector-curvature="0"
   style="fill:#f4f5f5" />
	<path
   d="m 11.939,19.032 c 0,-0.748 0.13,-1.346 0.387,-1.853 C 9.085,16.876 6.025,15.938 3.79,13.926 3.052,14.609 2.685,15.457 2.685,16.716 v 40.112 c 0,2.578 2.091,4.665 4.667,4.665 l 4.607,-1.945 c -0.013,-0.134 -0.021,-0.271 -0.021,-0.406 v -40.11 z"
   id="path41245"
   inkscape:connector-curvature="0"
   style="fill:#34484c" />
	<path
   d="m 50.628,48.729 c 0,2.576 -1.321,3.251 -4.663,4.663 l -29.37,10.414 c -2.576,0 -4.666,-2.089 -4.666,-4.665 v -40.11 c 0,-2.579 1.514,-3.435 4.666,-4.666 L 45.965,3.951 c 2.578,0 4.663,2.089 4.663,4.667 v 40.111 z"
   id="path41247"
   inkscape:connector-curvature="0"
   style="fill:#fbb041" />
	<path
   d="m 28.874,58.39 c -2.578,0 -4.665,-2.089 -4.665,-4.665 v -40.11 c 0,-1.438 0.68,-1.8 1.642,-2.532 l -9.256,3.284 c -3.152,1.23 -4.666,2.087 -4.666,4.666 v 40.11 c 0,2.576 2.09,4.665 4.666,4.665 l 29.37,-10.414 c 1.382,-0.584 2.416,-1.042 3.156,-1.563 L 28.874,58.39 z"
   id="path41249"
   inkscape:connector-curvature="0"
   style="fill:#e29632" />
	<g
   id="g41251">
		<path
   d="m 38.469,16.195 c 0.129,0.325 -0.037,0.691 -0.362,0.816 l -15.62,6.021 c -0.325,0.125 -0.691,-0.034 -0.815,-0.36 l 0,0 c -0.126,-0.327 0.035,-0.691 0.361,-0.816 l 15.62,-6.023 c 0.326,-0.123 0.692,0.039 0.816,0.362 l 0,0 z"
   id="path41253"
   inkscape:connector-curvature="0"
   style="fill:#ad6e29" />
		<path
   d="m 38.469,19.068 c 0.129,0.325 -0.037,0.691 -0.362,0.816 l -15.62,6.021 c -0.325,0.125 -0.691,-0.036 -0.815,-0.361 l 0,0 c -0.126,-0.326 0.035,-0.689 0.361,-0.816 l 15.62,-6.021 c 0.326,-0.126 0.692,0.036 0.816,0.361 l 0,0 z"
   id="path41255"
   inkscape:connector-curvature="0"
   style="fill:#ad6e29" />
		<path
   d="m 33.158,24.085 c 0.125,0.325 0.049,0.659 -0.174,0.744 L 22.317,28.94 c -0.222,0.087 -0.503,-0.109 -0.629,-0.435 l 0,0 c -0.124,-0.325 -0.046,-0.657 0.177,-0.744 l 10.667,-4.112 c 0.222,-0.084 0.503,0.111 0.626,0.436 l 0,0 z"
   id="path41257"
   inkscape:connector-curvature="0"
   style="fill:#ad6e29" />
	</g>
	<g
   id="g41259">
		<path
   d="m 1.342,18.049 c -1.944,0.701 -1.448,2.597 -0.558,4.015 1.316,2.097 3.335,3.566 5.686,4.263 1.961,0.58 4.32,0.628 6.275,0.046 2.102,-0.622 2.382,-3.109 0.817,-4.457 -0.937,-0.802 -2.253,0.59 -1.312,1.396 1.319,1.134 -0.677,1.4 -1.021,1.451 -0.575,0.085 -1.164,0.083 -1.738,0.077 C 8.461,24.83 7.434,24.618 6.45,24.327 5.198,23.955 4.176,23.119 3.297,22.185 3.082,21.955 1.57,20.001 1.908,19.88 3.063,19.464 2.51,17.631 1.342,18.049 l 0,0 z"
   id="path41261"
   inkscape:connector-curvature="0"
   style="fill:#c6c7c7" />
	</g>
	<g
   id="g41263">
		<path
   d="m 1.342,25.34 c -1.944,0.699 -1.448,2.598 -0.558,4.015 1.316,2.097 3.335,3.566 5.686,4.262 1.961,0.581 4.32,0.63 6.275,0.048 2.102,-0.622 2.382,-3.111 0.817,-4.457 -0.937,-0.802 -2.253,0.59 -1.312,1.396 1.319,1.134 -0.677,1.398 -1.021,1.451 -0.575,0.085 -1.164,0.081 -1.738,0.077 C 8.461,32.122 7.434,31.907 6.45,31.616 5.198,31.244 4.176,30.41 3.297,29.476 3.082,29.244 1.57,27.292 1.908,27.171 3.063,26.756 2.51,24.921 1.342,25.34 l 0,0 z"
   id="path41265"
   inkscape:connector-curvature="0"
   style="fill:#c6c7c7" />
	</g>
	<g
   id="g41267">
		<path
   d="m 1.356,32.989 c -1.946,0.701 -1.449,2.599 -0.558,4.015 1.315,2.098 3.334,3.566 5.686,4.264 1.96,0.58 4.318,0.628 6.276,0.047 2.101,-0.623 2.381,-3.112 0.814,-4.458 -0.934,-0.802 -2.251,0.59 -1.312,1.396 1.321,1.134 -0.674,1.4 -1.02,1.451 -0.571,0.084 -1.159,0.082 -1.736,0.076 C 8.48,39.772 7.447,39.558 6.463,39.267 5.213,38.895 4.191,38.058 3.313,37.127 3.098,36.895 1.584,34.94 1.922,34.819 3.08,34.406 2.521,32.571 1.356,32.989 l 0,0 z"
   id="path41269"
   inkscape:connector-curvature="0"
   style="fill:#c6c7c7" />
	</g>
	<g
   id="g41271">
		<path
   d="m 1.356,40.621 c -1.946,0.699 -1.449,2.597 -0.558,4.015 1.315,2.098 3.336,3.566 5.686,4.264 1.96,0.58 4.318,0.626 6.276,0.046 2.101,-0.622 2.384,-3.111 0.814,-4.457 -0.934,-0.802 -2.248,0.59 -1.312,1.396 1.321,1.133 -0.674,1.398 -1.02,1.45 -0.571,0.085 -1.159,0.081 -1.736,0.077 C 8.48,47.402 7.447,47.187 6.466,46.896 5.213,46.527 4.192,45.69 3.316,44.756 3.098,44.526 1.587,42.572 1.922,42.45 3.08,42.037 2.521,40.203 1.356,40.621 l 0,0 z"
   id="path41273"
   inkscape:connector-curvature="0"
   style="fill:#c6c7c7" />
	</g>
	<g
   id="g41275">
		<path
   d="m 1.356,48.162 c -1.946,0.701 -1.449,2.598 -0.558,4.015 1.315,2.097 3.336,3.566 5.686,4.263 1.96,0.58 4.318,0.629 6.276,0.047 2.101,-0.622 2.384,-3.109 0.814,-4.457 -0.934,-0.803 -2.248,0.59 -1.312,1.396 1.321,1.134 -0.674,1.398 -1.02,1.451 -0.571,0.085 -1.159,0.081 -1.736,0.077 C 8.48,54.945 7.447,54.731 6.466,54.44 5.213,54.068 4.192,53.234 3.316,52.3 3.098,52.068 1.587,50.113 1.922,49.992 3.08,49.578 2.521,47.743 1.356,48.162 l 0,0 z"
   id="path41277"
   inkscape:connector-curvature="0"
   style="fill:#c6c7c7" />
	</g>
</g>
</svg>
